src/actions/symbolic/builder-vcs-branch-symbolic.svg

<svg width="16" height="16" version="1.1" xmlns="http://www.w3.org/2000/svg">
 <path d="m3.5 1a1.5 1.5 0 0 0-1.5 1.5 1.5 1.5 0 0 0 1 1.4102v8.5898 2 0.5h1v-2.5s0.0068903-0.6466 0.32227-1.2773c0.31537-0.63074 0.8444-1.2227 2.1777-1.2227h3s0.6034 0.006899 1.2227-0.30273c0.61926-0.30963 1.2773-1.0306 1.2773-2.1973v-4.5859l2.3281 2.3281 0.70703-0.70703-3.5352-3.5352-3.5352 3.5352 0.70703 0.70703 2.3281-2.3281v2.0859 2.5c0 0.83333-0.34192 1.1124-0.72266 1.3027-0.38074 0.19037-0.77734 0.19727-0.77734 0.19727h-3c-1.1445 0-1.96 0.42873-2.5 0.97852v-6.0684a1.5 1.5 0 0 0 1-1.4102 1.5 1.5 0 0 0-1.5-1.5zm0 1a0.5 0.5 0 0 1 0.5 0.5 0.5 0.5 0 0 1-0.5 0.5 0.5 0.5 0 0 1-0.5-0.5 0.5 0.5 0 0 1 0.5-0.5z" fill="#363636"/>
</svg>

<svg xmlns="http://www.w3.org/2000/svg" width="16" height="16">
    <path fill="#050505" fill-opacity=".7" d="M3.5 1A1.5 1.5 0 0 0 2 2.5a1.5 1.5 0 0 0 1 1.41V15h1v-2.5s.007-.647.322-1.277C4.638 10.592 5.167 10 6.5 10h3s.603.007 1.223-.303C11.342 9.387 12 8.667 12 7.5V2.914l2.328 2.328.707-.707L11.5 1 7.965 4.535l.707.707L11 2.914V7.5c0 .833-.342 1.112-.723 1.303C9.897 8.993 9.5 9 9.5 9h-3c-1.145 0-1.96.429-2.5.978V3.91A1.5 1.5 0 0 0 5 2.5 1.5 1.5 0 0 0 3.5 1zm0 1a.5.5 0 0 1 .5.5.5.5 0 0 1-.5.5.5.5 0 0 1-.5-.5.5.5 0 0 1 .5-.5z"/>
</svg>
